Waterleaf/16x16/places/folder-temp.svg

<?xml version="1.0" encoding="UTF-8" standalone="no"?>
<!-- Created with Inkscape (http://www.inkscape.org/) -->

<svg
   xmlns:dc="http://purl.org/dc/elements/1.1/"
   xmlns:cc="http://creativecommons.org/ns#"
   xmlns:rdf="http://www.w3.org/1999/02/22-rdf-syntax-ns#"
   xmlns:svg="http://www.w3.org/2000/svg"
   xmlns="http://www.w3.org/2000/svg"
   xmlns:sodipodi="http://sodipodi.sourceforge.net/DTD/sodipodi-0.dtd"
   xmlns:inkscape="http://www.inkscape.org/namespaces/inkscape"
   width="15.999999"
   height="15.999999"
   viewBox="0 0 4.2333331 4.2333331"
   version="1.1"
   id="svg1214"
   inkscape:version="0.92.4 (5da689c313, 2019-01-14)"
   sodipodi:docname="folder-temp.svg">
  <defs
     id="defs1208">
    <filter
       id="filter7554"
       style="color-interpolation-filters:sRGB">
      <feBlend
         mode="darken"
         in2="BackgroundImage"
         id="feBlend7556" />
    </filter>
  </defs>
  <sodipodi:namedview
     id="base"
     pagecolor="#ffffff"
     bordercolor="#666666"
     borderopacity="1.0"
     inkscape:pageopacity="0.0"
     inkscape:pageshadow="2"
     inkscape:zoom="21.458333"
     inkscape:cx="12"
     inkscape:cy="12.000022"
     inkscape:document-units="mm"
     inkscape:current-layer="layer1"
     showgrid="false"
     units="px"
     inkscape:window-width="1362"
     inkscape:window-height="695"
     inkscape:window-x="0"
     inkscape:window-y="0"
     inkscape:window-maximized="1"
     fit-margin-top="0"
     fit-margin-left="0"
     fit-margin-right="0"
     fit-margin-bottom="0" />
  <metadata
     id="metadata1211">
    <rdf:RDF>
      <cc:Work
         rdf:about="">
        <dc:format>image/svg+xml</dc:format>
        <dc:type
           rdf:resource="http://purl.org/dc/dcmitype/StillImage" />
        <dc:title></dc:title>
      </cc:Work>
    </rdf:RDF>
  </metadata>
  <g
     inkscape:label="Layer 1"
     inkscape:groupmode="layer"
     id="layer1"
     transform="translate(0,-292.76666)">
    <path
       style="color:#000000;font-style:normal;font-variant:normal;font-weight:normal;font-stretch:normal;font-size:medium;line-height:normal;font-family:Sans;-inkscape-font-specification:Sans;text-indent:0;text-align:start;text-decoration:none;text-decoration-line:none;letter-spacing:normal;word-spacing:normal;text-transform:none;writing-mode:lr-tb;direction:ltr;baseline-shift:baseline;text-anchor:start;display:inline;overflow:visible;visibility:visible;opacity:1;fill:#78909c;fill-opacity:1;stroke:none;stroke-width:0.52916664;marker:none;enable-background:accumulate"
       d="m 0.48782539,293.16443 c -0.074414,0.0124 -0.2232422,0.0661 -0.2232422,0.26458 v 2.91042 c 0,0 0,0.26458 0.2645833,0.26458 H 3.7041665 c 0,0 0.2645834,0 0.2645834,-0.26458 v -2.38125 c 0,-0.26458 -0.2645834,-0.26458 -0.2645834,-0.26458 H 2.3812499 L 1.8520832,293.16443 H 0.52916649 c 0,0 -0.016536,-0.004 -0.0413411,0 z"
       id="path6672-3"
       inkscape:connector-curvature="0"
       sodipodi:nodetypes="cscscssccccc" />
    <g
       style="fill:#ffffff;enable-background:new"
       id="g2261"
       transform="matrix(0.08819447,0,0,0.08819447,2.2044385,294.79425)">
      <path
         id="path4528"
         d="m 3.0047778,1.01 c -0.554003,0 -0.999987,0.4459842 -0.999987,0.9999874 v 8.9999996 h 0.999987 V 10.01 h 1.000025 V 3.0099748 h 4.999975 v 3.0000001 h 3.0000002 v 8.0000131 0.999987 h 1.000026 v -0.999987 h 0.999987 V 5.0099874 L 10.004803,1.01 Z M 13.004804,15.009975 V 16.01 h 0.999987 v -1.000025 z m -1.000026,0 H 11.004791 V 16.01 h 0.999987 z m -0.999987,0 v -0.999987 h -0.999988 v 0.999987 z m -0.999988,0 H 9.0047778 V 16.01 h 1.0000252 z m -1.0000252,0 v -0.999987 h -0.999987 v 0.999987 z m -0.999987,0 H 7.0048028 V 16.01 h 0.999988 z m -0.999988,0 v -0.999987 h -1.000025 v 0.999987 z m -1.000025,0 H 5.0047908 V 16.01 h 0.999987 z m -0.999987,0 v -0.999987 h -0.999988 v 0.999987 z m -0.999988,0 H 3.0047778 V 16.01 h 1.000025 z m -1.000025,0 v -0.999987 h -0.999987 v 0.999987 z m 0,-0.999987 h 1.000025 V 13.01 h -1.000025 z m 0,-0.999988 V 12.009975 H 2.0047908 V 13.01 Z m 0,-1.000025 h 1.000025 v -0.999988 h -1.000025 z"
         style="opacity:1;fill:#ffffff;fill-opacity:1;stroke-width:0.99999994"
         inkscape:connector-curvature="0" />
    </g>
  </g>
</svg>

<svg xmlns="http://www.w3.org/2000/svg" width="16" height="16" version="1.1" viewBox="0 0 16 16">
 <defs>
  <style id="current-color-scheme" type="text/css">
   .ColorScheme-Text { color:#5c616c; } .ColorScheme-Highlight { color:#5294e2; } .ColorScheme-ButtonBackground { color:#d3dae3; }
  </style>
 </defs>
 <path style="fill:currentColor" d="M 3,1 C 2.446,1 2,1.446 2,2 V 11 H 3 V 10 H 4 V 3 H 9 V 6 H 12 V 14 15 H 13 V 14 H 14 V 5 L 10,1 Z M 13,15 V 16 H 14 V 15 Z M 12,15 H 11 V 16 H 12 Z M 11,15 V 14 H 10 V 15 Z M 10,15 H 9 V 16 H 10 Z M 9,15 V 14 H 8 V 15 Z M 8,15 H 7 V 16 H 8 Z M 7,15 V 14 H 6 V 15 Z M 6,15 H 5 V 16 H 6 Z M 5,15 V 14 H 4 V 15 Z M 4,15 H 3 V 16 H 4 Z M 3,15 V 14 H 2 V 15 Z M 3,14 H 4 V 13 H 3 Z M 3,13 V 12 H 2 V 13 Z M 3,12 H 4 V 11 H 3 Z" class="ColorScheme-Text"/>
</svg>
